/* XPM */
static char *a3780bf79de045a2e85b3c267f63edb8bunFfl3E7YSXLqtd[] = {
/* columns rows colors chars-per-pixel */
"64 64 5 1 ",
"  c black",
". c #323232",
"X c gray34",
"o c gray38",
"O c gray46",
/* pixels */
"OOOOOOOOOOOOOOoXOOOOOOOOOOOOOOOOOOOOOOOOOOOOOOOOOOOOOOOOOOOOOOOO",
"OOOOOOOOOOOOOOoXOOOOOOOOOOOOOOOOOOOOOOOOOOOOOOOOOOOOOOOOOOOOOOOO",
"OOOOOOOOOOOOOOoXOOOOOOOOOOOOOOOOOOOOOOOOOOOOOOOOOOOOOOOOOOOOOOOO",
"OOOOOOOOOOOOOOoXOOOOOOOOOOOOOOOOOOOOOOOOOOOOOOOOOOOOOOOOOOOOOOOO",
"OOOOOOOOOOOOOOoXOOOOOOOOOOOOOOOOOOOOOOOOOOOOOOOOOOOOOOOOOOOOOOOO",
"oooooooooooooooooooooooooooooooooooooooooooooooooooooooooooooooo",
"XXXXXXXXXXXXXXXXXXXXXXXXXXXXXXXoXXXXXXXXXXXXXXXXXXXXXXXXXXXXXXXX",
"OOOOOOOOOOOOOOOOOOOOOOOOOOOOOOOoXOOOOOOOOOOOOOOOOOOOOOOOOOOOOOOO",
"OOOOOOOOOOOOOOOOOOOOOOOOOOOOOOOoXOOOOOOOOOOOOOOOOOOOOOOOOOOOOOOO",
"OOOOOOOOOOOOOOOOOOOOOOOOOOOOOOOoXOOOOOOOOOOOOOOOOOOOOOOOOOOOOOOO",
"OOOOOOOOOOOOOOOOOOOOOOOOOOOOOOOoXOOOOOOOOOOOOOOOOOOOOOOOOOOOOOOO",
"OOOOOOOOOOOOOOOOOOOOOOOOOOOOOOOoXOOOOOOOOOOOOOOOOOOOOOOOOOOOOOOO",
"OOOOOOOOOOOOOOOOOOOOOOOOOOOOOOOoXOOOOOOOOOOOOOOOOOOOOOOOOOOOOOOO",
"OOOOOOOOOOOOOOOOOOOOOOOOOOOOOOOoXOOOOOOOOOOOOOOOOOOOOOOOOOOOOOOO",
"OOOOOOOOOOOOOOOOOOOOOOOOOOOOOOOoXOOOOOO OOOOOOOOOOOOOOOOOOOOOOOO",
"ooooooooooooooooooooooooooooooooooooooo. ooooooooooooooooooooooo",
"XXXXXXXXXoXXXXXXXXXXXXXXXXXXXXXXXXXXXXXX. XXXXXXXXXXXXXXXXoXXXXX",
"OOOOOOOOOoXOOOOOOOOOOOOOOOOOOOOOOOOOOOOOO.      ..OOOOOOOOoXOOOO",
"OOOOOOOOOoXOOOOOOOOOOOOOOOOOOOOOOOOOOOOOOO....   OOOOOOOOOoXOOOO",
"OOOOOOOOOoXOOOOOOOOOOOOOOOOOOOOOOOOOOOOOOOOOO.  OOOOOOOOOOoXOOOO",
"OOOOOOOOOoXOOOOOOOOOOOOOOOOOOOOOOOOOOOOOOOOO.  OOOOOOOOOOOoXOOOO",
"OOOOOOOOOoXOOOOOOOOOOOOOOOOOOOOOOOOOOOOOOOOO.  O  OOOOOOOOoXOOOO",
"OOOOOOOOOoXOOOOOOOOOOOOOOOOOOOOOOOOOOOOOOOOO.  O.. OOOOOOOoXOOOO",
"OOOOOOOOOoXOOOOOOOOOOOOOOOOOOOOOOOOOOOOOOOO.  OOO. OOOOOOOoXOOOO",
"OOOOOOOOOoXOOOOOOOOOOOOOOOOOOOOOOOOOOOOOOOO. OOOOO.  OOOOOoXOOOO",
"ooooooooooooooooooooooooooooooooooooooooooooooooooo...oooooooooo",
"XXXXXXXXXXXXXXoXXXXXXXXXXXXXXXXXXXXXXXXXXXXoXXXXXXXXXXXXXXXXXXXX",
"OOOOOOOOOOOOOOoXOOOOOOOOOOOOOOOOOOOOOOOOOOOoXOOOOOOOOOOOOOOOOOOO",
"OOOOOOOOOOOOOOoXOOOOOOOOOOOOOOOOOOOOOOOOOOOoXOOOOOOOOOOOOOOOOOOO",
"OOOOOOOOOOOOOOoXOOOOOOOOOOOOOOOOOOOOOOOOOOOoXOOOOOOOOOOOOOOOOOOO",
"OOOOOOOOOOOOOOoXOOOOOOOOOOOOOOOOOOOOOOOOOOOoXOOOOOOOOOOOOOOOOOOO",
"OOOOOOOOOOOOOOoXOOOOOOOOOOOOOOOOOOOOOOOOOOOoXOOOOOOOOOOOOOOOOOOO",
"OOOOOOOOOOOOOOoXOOOOOOOOOOOOOOOOOOOOOOOOOOOoXOOOOOOOOOOOOOOOOOOO",
"OOOOOOOOOOOOOOoXOOOOOOOOOOOOOOOOOOOOOOOOOOOoXOOOOOOOOOOOOOOOOOOO",
"oooooooooooooooooooooooooooooooooooooooooooooooooooooooooooooooo",
"XXXXXXXXXXXXXXXXXXXXXXXXXXXXXXXoXXXXXXXXXXXXXXXXXXXXXXXXXXoXXXXX",
"OOOOOOOOOOOOOOOOOOOOOOOOOOOOOOOoXOOOOOOOOOOOOOOOOOOOOOOOOOoXOOOO",
"OOOOOOOOOOOOOOOOOOOOOOOOOOOOOOOoXOOOOOOOOOOOOOOOOOOOOOOOOOoXOOOO",
"OOOOOOOOOOOOOOOOOOO.OOOOOOOOOOOoXOOOOOOOOOOOOOOOOOOOOOOOOOoXOOOO",
"OOOOOOOOOOOOOOOOOO .OOOOOOOOOOOoXOOOOOOOOOOOOOOOOOOOOOOOOOoXOOOO",
"OOOOOOOOOOOOOOOOO  .OOOOOOOOOOOoXOOOOOOOOOOOOOOOOOOOOOOOOOoXOOOO",
"OOOOOOOOOOOOOOOO  .OOOOOOOOOOOOoXOOOOOOOOOOOOOOOOOOOOOOOOOoXOOOO",
"OOOOOOOOOOOOOOOO  .OOOOOOOOOOOOoXOOOOOOOOOOOOOOOOOOOOOOOOOoXOOOO",
"OOOOOOOOOOOOOOO   OOOOOOOOOOOOOoXOOOOOOOOOOOOOOOOOOOOOOOOOoXOOOO",
"ooooooooooooooo  .oooooooooooooooooooooooooooooooooooooooooooooo",
"XXXXXXXXXoXXXX  .XXXXXXXXXXXXXXXXXXXoXXXXXXXXXXXXXXXXXXXXXXXXXXX",
"OOOOOOOOOoXOO   .OOOOOOOOOOOOOOOOOOOoXOOOOOOOOOOOOOOOOOOOOOOOOOO",
"OOOOOOOOOoXO  .. .OOOOOOOOOOOOOOOOOOoXOOOOOOOOOOOOOOOOOOOOOOOOOO",
"OOOOOOOOOo   ...  OOOOOOOOOOOOOOOOOOoXOOOOOOOOOOOOOOOOOOOOOOOOOO",
"OOOOOOOOO  .OOOO. .OOOOOOOOOOOOOOOOOoXOOOOOOOOOOOOOOOOOOOOOOOOOO",
"OOOOOOOOO .OOOOOO..OOOOOOOOOOOOOOOOOoXOOOOOOOOOOOOOOOOOOOOOOOOOO",
"OOOOOOOOO.XOOOOOOOOOOOOOOOOOOOOOOOOOoXOOOOOOOOOOOOOOOOOOOOOOOOOO",
"OOOOOOOOOoXOOOOOOOOOOOOOOOOOOOOOOOOOoXOOOOOOOOOOOOOOOOOOOOOOOOOO",
"OOOOOOOOOoXOOOOOOOOOOOOOOOOOOOOOOOOOoXOOOOOOOOOOOOOOOOOOOOOOOOOO",
"oooooooooooooooooooooooooooooooooooooooooooooooooooooooooooooooo",
"XXXXXXXXXXXXXXoXXXXXXXXXXXXXXXXXXXXXXXXXXXXXXoXXXXXXXXXXXXXXXXXX",
"OOOOOOOOOOOOOOoXOOOOOOOOOOOOOOOOOOOOOOOOOOOOOoXOOOOOOOOOOOOOOOOO",
"OOOOOOOOOOOOOOoXOOOOOOOOOOOOOOOOOOOOOOOOOOOOOoXOOOOOOOOOOOOOOOOO",
"OOOOOOOOOOOOOOoXOOOOOOOOOOOOOOOOOOOOOOOOOOOOOoXOOOOOOOOOOOOOOOOO",
"OOOOOOOOOOOOOOoXOOOOOOOOOOOOOOOOOOOOOOOOOOOOOoXOOOOOOOOOOOOOOOOO",
"OOOOOOOOOOOOOOoXOOOOOOOOOOOOOOOOOOOOOOOOOOOOOoXOOOOOOOOOOOOOOOOO",
"OOOOOOOOOOOOOOoXOOOOOOOOOOOOOOOOOOOOOOOOOOOOOoXOOOOOOOOOOOOOOOOO",
"OOOOOOOOOOOOOOoXOOOOOOOOOOOOOOOOOOOOOOOOOOOOOoXOOOOOOOOOOOOOOOOO",
"OOOOOOOOOOOOOOoXOOOOOOOOOOOOOOOOOOOOOOOOOOOOOoXOOOOOOOOOOOOOOOOO"
};
